X:167
T: Ki van borért
M: 4/4
L: 1/4
K: F
gfgf | gfed | 
fgcd | cBAG | 
cdcB | cBAG | 
cdcB | GGGG | 

